X:1
T:Chi nel Regno
T:Chi nel Regno
T:Gioan Felice Sances
T:Source : Capricci poetici---Venetia---A.Gardano---1649. Editor : André Vierendeels (08/05/15).
T:Notes : Original clefs : C1, F4 Figures in BC notated in original print
C:Gioan Felice Sances
%%score 1 2
L:1/8
Q:1/4=80
M:4/4
K:C
V:1 treble nm="Soprano" snm="S"
V:2 bass nm="BC" snm="BC"
V:1
 z2 AA d2 d2 | c2 c>B B2 B2 | z2 AB G^FGE | ^FDdc B4 | A4 z2 AB | G^FGE FDdd | d3 (^c d4) :: %7
w: Chi nel Re- gno|al- mo d'A- mo- re|bra- ma l'o- re trar se-|re- ne fior di pe-|ne, bra- ma|l'o- re trar se- re- ne fuor di|pe- ne, _|
w: Fin- ga pe- ne|per cia- * scu- na|ma nes- su- n'hab- bia la|pal- ma d'ar- der l'al-|ma, ma nes-|su- n'hab- bia la pal- ma l'ar- der|l'al- ma: _|
w: La mo- de- sta|se ti _ scac- cia|tu pro- cac- cia che l'au-|da- ce ti dia pa-|ce, tu pro-|cac- cia che l'au- da- ce ti dia|pa- ce: _|
w: Quan- do ve- de|Don- na _ bel- la|che sol el- la nel tuo|pet- to ha ri- cet-|to, che sol|el- la nel tuo pet- to ha ri-|cet- to: _|
w: Ma se scor- ge|che tu _ scal- tro|to- sto'ad al- tro'a- ma- bil|vol- to sa- rai vol-|to, to- sto'ad|al- tro'a- ma- bil vol- to sa- rai|vol- to: _|
 z2 dd cBcA | B2 B2 ed cB | A4 G2 BG | A2 ^F2 z4 | z2 ^fd e2 ^c2 | ^fe d^c B4 | A4 z4 | %14
w: d'u- na so- l'a- man- te|stol- to non _ si _|chia- mi mol- te|n'a- mi,|mol- te n'a- mi,|ma _ non _ mol-|to,|
w: Tal hor es- ca'in mez- zo'al|vi- so bre- * ve _|pian- to ma fra|tan- to,|ma fra tan- to'in|cor _ sia _ ri-|so,|
w: Se la bian- ca ti bef-|feg- gia per _ ven- *|det- ta la bru-|net- ta,|la bru- net- ta|tu _ va _ gheg-|gia,|
w: In tro- feo- mes- chin ti|me- na sia _ gel _|la- to con- dam-|na- to,|con- dam- na- to'a|vil _ ca- * te-|na,|
w: Non si mon- stra piu se-|re- na ma _ pie- *|to- sa- a- mo-|ro- sa,|a- mo- ro- sa|lu _ sin- * ghie-|ra,|
 z2 A^F G2 E2 | z2 ^fd e2 ^c2 | ^fed>^c Bc d2- | d2 ^c2 d4 :| %18
w: mol- te n'a- mi,|mol- te n'a- mi|ma _ _ _ _ non mol-|* * to.|
w: ma fra tan- to,|ma fra tan- to'in|cor _ _ _ _ sia ri-|* * so.|
w: per ven- det- ta|la- bru- net- ta|tu _ _ _ _ va- gheg-|* * ga.|
w: con- dam- na- to,|con- dam- na- to'a|vil _ _ _ _ ca- te-|* * na.|
w: a- mo- ro- sa,|a- mo- ro- sa|lu- * * * * sin- ghie-|* * ra.|
V:2
"^#" D,3 C, B,,4 |"^7         6" A,,4 G,,2 G,2 |"^7  6" ^F,4 E,4 | D,2 ^F,2 D,2 E,2 | %4
 A,,3 B,, ^C,2 A,,2 | B,,2 ^C,2 D,2 ^F,2 | G,2 A,2 D,4 :: D,4 E,3 ^F, | G,F,E,D, C,4 | %9
 D,4 G,,2 G,2 |"^7  6" ^F,4 E,4 | D,4 ^C,4 | D,4 E,4 | A,,2 A,G, ^F,2 E,2 | D,4 B,,2 ^C,2 | %15
 D,4 A,3 G, | ^F,4 G,2 B,2 | A,4 D,4 :| %18

